X: 31673
T: Parting Glass, The
R: barndance
M: 4/4
K: Bminor
"F#7"(FE)|"Bm"D2B,2"G"B,2(A,B,)|"D"D2D2"Em"E2(DE)|"Bm"F2F2"A7"(FE)(DE)|[M:6/4]"D"F2A,2A,6"F#7"
(FE)|[M:4/4]"Bm"D2B,2"G"B,2(A,B,)|"D"D2D2"Em"E2(DE)|"Bm"F2B2"F#m"(AF)(EF)|[M:6/4]"Bm"D2B,2B,6"Bm"
F2|[M:4/4]"D"(AF)(AB)A2A2|"F#m"(AF)(AB)A3F|"Em"G2F2(FE)(DE)|[M:6/4]"D"F2A,2A,6"F#7"
(FE)|[M:4/4]"Bm"D2B,2"G"B,2(A,B,)|[M:6/4]"D"D2D2"Em"E6"F#7"(DE)|[M:4/4]"Bm"F2B2"F#m"(AF)(EF)|[M:6/4]"G"D2B,2"Bm"B,6||

